static/img/instagram.svg

<svg fill="none" height="34" viewBox="0 0 34 34" width="34" xmlns="http://www.w3.org/2000/svg" xmlns:xlink="http://www.w3.org/1999/xlink"><linearGradient id="a"><stop offset="0" stop-color="#e09b3d"/><stop offset=".3" stop-color="#c74c4d"/><stop offset=".6" stop-color="#c21975"/><stop offset="1" stop-color="#7024c4"/></linearGradient><linearGradient id="b" gradientUnits="userSpaceOnUse" x1="17" x2="17" xlink:href="#a" y1="33.901" y2=".264084"/><linearGradient id="c" gradientUnits="userSpaceOnUse" x1="17" x2="17" xlink:href="#a" y1="33.9009" y2=".263995"/><linearGradient id="d" gradientUnits="userSpaceOnUse" x1="25.8106" x2="25.8106" xlink:href="#a" y1="33.901" y2=".264085"/><path d="m23.8712 0h-13.7424c-5.58505 0-10.1288 4.54375-10.1288 10.1288v13.7424c0 5.585 4.54375 10.1288 10.1288 10.1288h13.7424c5.585 0 10.1288-4.5438 10.1288-10.1288v-13.7424c-.0001-5.58505-4.5438-10.1288-10.1288-10.1288zm6.7084 23.8712c0 3.7049-3.0035 6.7084-6.7084 6.7084h-13.7424c-3.70492 0-6.7084-3.0035-6.7084-6.7084v-13.7424c0-3.70499 3.00348-6.7084 6.7084-6.7084h13.7424c3.7049 0 6.7084 3.00341 6.7084 6.7084z" fill="url(#b)"/><path d="m17 8.2063c-4.8488 0-8.79358 3.9448-8.79358 8.7935 0 4.8488 3.94478 8.7937 8.79358 8.7937s8.7936-3.9449 8.7936-8.7937-3.9448-8.7935-8.7936-8.7935zm0 14.1668c-2.9675 0-5.3732-2.4056-5.3732-5.3732s2.4057-5.3732 5.3732-5.3732c2.9676 0 5.3732 2.4056 5.3732 5.3732 0 2.9675-2.4057 5.3732-5.3732 5.3732z" fill="url(#c)"/><path d="m25.8106 10.3795c1.1638 0 2.1071-.94335 2.1071-2.10709 0-1.16373-.9433-2.10713-2.1071-2.10713-1.1637 0-2.1071.9434-2.1071 2.10713 0 1.16374.9434 2.10709 2.1071 2.10709z" fill="url(#d)"/></svg>

<svg width="34" height="34" viewBox="0 0 34 34" fill="none" xmlns="http://www.w3.org/2000/svg">
<path d="M23.8712 0H10.1288C4.54375 0 0 4.54375 0 10.1288V23.8712C0 29.4562 4.54375 34 10.1288 34H23.8712C29.4562 34 34 29.4562 34 23.8712V10.1288C33.9999 4.54375 29.4562 0 23.8712 0ZM30.5796 23.8712C30.5796 27.5761 27.5761 30.5796 23.8712 30.5796H10.1288C6.42388 30.5796 3.4204 27.5761 3.4204 23.8712V10.1288C3.4204 6.42381 6.42388 3.4204 10.1288 3.4204H23.8712C27.5761 3.4204 30.5796 6.42381 30.5796 10.1288V23.8712Z" fill="url(#paint0_linear)"/>
<path d="M17 8.2063C12.1512 8.2063 8.20642 12.1511 8.20642 16.9998C8.20642 21.8486 12.1512 25.7935 17 25.7935C21.8488 25.7935 25.7936 21.8486 25.7936 16.9998C25.7936 12.151 21.8488 8.2063 17 8.2063ZM17 22.3731C14.0325 22.3731 11.6268 19.9675 11.6268 16.9999C11.6268 14.0323 14.0325 11.6267 17 11.6267C19.9676 11.6267 22.3732 14.0323 22.3732 16.9999C22.3732 19.9674 19.9675 22.3731 17 22.3731Z" fill="url(#paint1_linear)"/>
<path d="M25.8106 10.3795C26.9744 10.3795 27.9177 9.43615 27.9177 8.27241C27.9177 7.10868 26.9744 6.16528 25.8106 6.16528C24.6469 6.16528 23.7035 7.10868 23.7035 8.27241C23.7035 9.43615 24.6469 10.3795 25.8106 10.3795Z" fill="url(#paint2_linear)"/>
<defs>
<linearGradient id="paint0_linear" x1="17" y1="33.901" x2="17" y2="0.264084" gradientUnits="userSpaceOnUse">
<stop stop-color="#E09B3D"/>
<stop offset="0.3" stop-color="#C74C4D"/>
<stop offset="0.6" stop-color="#C21975"/>
<stop offset="1" stop-color="#7024C4"/>
</linearGradient>
<linearGradient id="paint1_linear" x1="17" y1="33.9009" x2="17" y2="0.263995" gradientUnits="userSpaceOnUse">
<stop stop-color="#E09B3D"/>
<stop offset="0.3" stop-color="#C74C4D"/>
<stop offset="0.6" stop-color="#C21975"/>
<stop offset="1" stop-color="#7024C4"/>
</linearGradient>
<linearGradient id="paint2_linear" x1="25.8106" y1="33.901" x2="25.8106" y2="0.264085" gradientUnits="userSpaceOnUse">
<stop stop-color="#E09B3D"/>
<stop offset="0.3" stop-color="#C74C4D"/>
<stop offset="0.6" stop-color="#C21975"/>
<stop offset="1" stop-color="#7024C4"/>
</linearGradient>
</defs>
</svg>
